actions/24/fcitx-cangjie.svg

<?xml version="1.0" encoding="UTF-8" standalone="no"?>
<svg
   width="24"
   height="24"
   version="1.1"
   id="svg9"
   sodipodi:docname="fcitx-cangjie.svg"
   inkscape:version="1.1.2 (0a00cf5339, 2022-02-04)"
   xmlns:inkscape="http://www.inkscape.org/namespaces/inkscape"
   xmlns:sodipodi="http://sodipodi.sourceforge.net/DTD/sodipodi-0.dtd"
   xmlns="http://www.w3.org/2000/svg"
   xmlns:svg="http://www.w3.org/2000/svg">
  <sodipodi:namedview
     id="namedview11"
     pagecolor="#000000"
     bordercolor="#666666"
     borderopacity="1.0"
     inkscape:pageshadow="2"
     inkscape:pageopacity="0"
     inkscape:pagecheckerboard="0"
     showgrid="false"
     inkscape:zoom="56.833333"
     inkscape:cx="11.991202"
     inkscape:cy="11.982405"
     inkscape:window-width="1596"
     inkscape:window-height="967"
     inkscape:window-x="0"
     inkscape:window-y="29"
     inkscape:window-maximized="1"
     inkscape:current-layer="g7" />
  <defs
     id="defs3">
    <style
       id="current-color-scheme"
       type="text/css">
   .ColorScheme-Text { color:#eeeeec; } .ColorScheme-Highlight { color:#367bf0; } .ColorScheme-NeutralText { color:#ffcc44; } .ColorScheme-PositiveText { color:#3db47e; } .ColorScheme-NegativeText { color:#dd4747; }
  </style>
  </defs>
  <g
     transform="matrix(1,0,0,1,4,4)"
     id="g7">
    <path
       class="ColorScheme-Text"
       d="M 2,0 C 0.892,0 0,0.892 0,2 v 12 c 0,1.108 0.892,2 2,2 h 12 c 1.108,0 2,-0.892 2,-2 V 2 C 16,0.892 15.108,0 14,0 Z m 5.584,1.7227 h 0.832 c 1.844,2.7653 5.647,3.2812 5.647,3.2812 l -0.125,0.9922 c 0,0 -0.725028,-0.107624 -1.71793,-0.4556411 -0.07201,-0.025239 0.07465,0.027818 0,0 L 12,5.6986843 V 10 H 4.9453 C 4.9122127,10.265168 4.8613206,10.527277 4.789513,10.785369 4.7695192,10.857231 5.0121838,11 5.0121838,11 v 0 H 12 v 3 H 4 v -1.157321 0 L 3.9336,12.748 c -0.5203,0.911 -1.043,1.565 -1.043,1.565 L 2.1094,13.688 c -10e-5,0 0.4774,-0.597 0.957,-1.436 C 3.5461,11.413 4,10.333 4,9.5 V 5.6639216 L 3.7970763,5.5344595 c -0.068733,0.025622 0.066504,-0.023431 0,0 C 2.7957631,5.8872405 2.0625,5.9961 2.0625,5.9961 L 1.9375,5.0039 c 0,0 3.8029,-0.5159 5.6465,-3.2812 z m 0.573186,1.169661 c 0,0 -0.2805094,-0.038753 -0.3437065,0.033953 C 7.1436376,3.6969445 6.3627242,4.2782455 5.595403,4.7173787 5.4178256,4.8190051 5.7166254,5 5.7166254,5 V 5 H 7.5977 l -0.875,-0.584 0.5546,-0.832 1.5,1 L 8.5,5 h 1.667806 v 0 c 0,0 0.395398,-0.1912381 0.208039,-0.2992645 C 9.6064252,4.2571091 8.825119,3.6701352 8.157186,2.892361 c -0.053134,-0.061872 0.051636,0.06431 0,0 z M 5,6 v 1 h 5 V 8 H 5 v 1 h 6 V 6 Z m 0,6 v 1 h 6 v -1 z"
       style="fill:currentColor"
       id="path5"
       sodipodi:nodetypes="sssssssssccccsccccscccccccccccsccsccccsscccccccccssccccccccccccccc" />
  </g>
</svg>

<svg xmlns="http://www.w3.org/2000/svg" width="24" height="24" version="1.1">
 <defs>
  <style id="current-color-scheme" type="text/css">
   .ColorScheme-Text { color:#eeeeec; } .ColorScheme-Highlight { color:#367bf0; } .ColorScheme-NeutralText { color:#ffcc44; } .ColorScheme-PositiveText { color:#3db47e; } .ColorScheme-NegativeText { color:#dd4747; }
  </style>
 </defs>
 <g transform="matrix(1,0,0,1,4,4)">
  <path class="ColorScheme-Text" d="M 2,0 C 0.892,0 0,0.892 0,2 V 14 C 0,15.108 0.892,16 2,16 H 14 C 15.108,16 16,15.108 16,14 V 2 C 16,0.892 15.108,0 14,0 Z M 7.584,1.7227 H 8.416 C 10.26,4.488 14.063,5.0039 14.063,5.0039 L 13.938,5.9961 C 13.938,5.9961 13.104,5.8723 12,5.4609 V 10 H 4.9453 C 4.903,10.339 4.8316,10.673 4.7246,11 H 12 V 14 H 4 V 12.623 L 3.9336,12.748 C 3.4133,13.659 2.8906,14.313 2.8906,14.313 L 2.1094,13.688 C 2.1093,13.688 2.5868,13.091 3.0664,12.252 3.5461,11.413 4,10.333 4,9.5 V 5.4609 C 2.8964,5.8723 2.0625,5.9961 2.0625,5.9961 L 1.9375,5.0039 C 1.9375,5.0039 5.7404,4.488 7.584,1.7227 Z M 8,2.7031 C 7.1412,3.7727 6.0665,4.5017 5.0664,5 H 7.5977 L 6.7227,4.416 7.2773,3.584 8.7773,4.584 8.5,5 H 10.934 C 9.9335,4.5017 8.8588,3.7727 8,2.7031 Z M 5,6 V 7 H 10 V 8 H 5 V 9 H 11 V 6 Z M 5,12 V 13 H 11 V 12 Z" style="fill:currentColor"/>
 </g>
</svg>
